X: 1
T:Harum Scarum
R:Polka
O:England
M:2/4
C:Andy Hornby
A:Lancaster
N:1986
K:Dm
DEFG B2^c2 |d6 A2 | B2AG A2F2| \
G2E2 A2F2 | DEFG B2^c2 | \
|1 d6e2 | f2ed A2^c2 | d8 :|2 d2e2 f2a2 | gfed A2^c2 | d6e2 || \
f3e f2d2 | efed ^c2A2 | \
B3A B2d2 | A6 F2 | \
G3F G2E2| FGFE D2F2 | E2D2 ^C2D2 | E6A2 | \
^c3d e2c2 | d3e f2d2 | ^c2d2 e2c2 | d6A2 | \
BcBA G2B2| A2G2 ^F2D2 | =f2e2 d2^c2 | d8 |]
W:Copyright (C) Andy Hornby
